src/topics/icons/heap.svg

<svg height="296" preserveAspectRatio="xMidYMid" viewBox="0 0 256 296" width="256" xmlns="http://www.w3.org/2000/svg" xmlns:xlink="http://www.w3.org/1999/xlink"><linearGradient id="a" x1="49.899588%" x2="49.899588%" y1="100.003488%" y2=".003114%"><stop offset="0" stop-color="#f37c27"/><stop offset="1" stop-color="#ed3774"/></linearGradient><path d="m24.8165779 207.36323v-119.133808l103.1806851-59.5805907v119.1392827l103.186159-59.558692v119.133808l-103.186159 59.580591zm90.7751331-200.21881478-103.1806847 59.57511598-12.4110263 7.1772631v14.3381023 119.1338084 14.349051l12.4110263 7.166314 103.1861597 59.580591 12.400077 7.166314 12.416501-7.177264 103.180684-59.58059 12.405552-7.166314v-14.349052-119.128333-14.3381023l-12.405552-7.1772631-103.180684-59.56964138-12.416501-7.14441522z" fill="url(#a)"/></svg>

<?xml version="1.0" encoding="UTF-8" standalone="no"?>
<svg width="256px" height="296px" viewBox="0 0 256 296" version="1.1" xmlns="http://www.w3.org/2000/svg" xmlns:xlink="http://www.w3.org/1999/xlink" preserveAspectRatio="xMidYMid">
    <defs>
        <linearGradient x1="49.8995881%" y1="100.003488%" x2="49.8995881%" y2="0.00311374074%" id="linearGradient-1">
            <stop stop-color="#F37C27" offset="0%"></stop>
            <stop stop-color="#ED3774" offset="100%"></stop>
        </linearGradient>
    </defs>
    <g>
        <path d="M24.8165779,207.36323 L24.8165779,88.229422 L127.997263,28.6488313 L127.997263,147.788114 L231.183422,88.229422 L231.183422,207.36323 L127.997263,266.943821 L24.8165779,207.36323 L24.8165779,207.36323 Z M115.591711,7.14441522 L12.4110263,66.7195312 L0,73.8967943 L0,88.2348966 L0,207.368705 L0,221.717756 L12.4110263,228.88407 L115.597186,288.464661 L127.997263,295.630975 L140.413764,288.453711 L243.594448,228.873121 L256,221.706807 L256,207.357755 L256,88.229422 L256,73.8913197 L243.594448,66.7140566 L140.413764,7.14441522 L127.997263,0 L115.591711,7.14441522 L115.591711,7.14441522 Z" fill="url(#linearGradient-1)"></path>
    </g>
</svg>
